build/redact/BorderOuterOutline.svg

<svg xmlns="http://www.w3.org/2000/svg" fill="none" viewBox="0 0 24 24" focusable="false"><path d="M0 0H24V24H0z" transform="matrix(1 0 0 -1 0 24)"/><path fill="#74767B" fill-rule="evenodd" d="M7.6516 4C5.63488 4 4 5.63416 4 7.65L4 16.3453C4 18.3612 5.63488 19.9953 7.6516 19.9953L16.3484 19.9953C18.3651 19.9953 20 18.3612 20 16.3453L20 7.65C20 5.63416 18.3651 4 16.3484 4L7.6516 4ZM5.30057 7.65C5.30057 6.35213 6.35316 5.3 7.6516 5.3L16.3484 5.3C17.6468 5.3 18.6994 6.35213 18.6994 7.65L18.6994 16.3453C18.6994 17.6432 17.6468 18.6953 16.3484 18.6953L7.6516 18.6953C6.35316 18.6953 5.30057 17.6432 5.30057 16.3453L5.30057 7.65ZM11.9949 9.57139C11.6358 9.57139 11.3446 9.28037 11.3446 8.92139L11.3446 7.72627C11.3446 7.36728 11.6358 7.07627 11.9949 7.07627C12.3541 7.07627 12.6452 7.36728 12.6452 7.72627L12.6452 8.92139C12.6452 9.28037 12.3541 9.57139 11.9949 9.57139ZM7.72155 11.3478C7.36241 11.3478 7.07127 11.6388 7.07127 11.9978C7.07127 12.3567 7.36241 12.6478 7.72155 12.6478L8.91719 12.6478C9.27633 12.6478 9.56748 12.3567 9.56748 11.9978C9.56748 11.6388 9.27633 11.3478 8.91719 11.3478L7.72155 11.3478ZM15.0724 11.3478C14.7133 11.3478 14.4221 11.6388 14.4221 11.9978C14.4221 12.3567 14.7133 12.6478 15.0724 12.6478L16.2681 12.6478C16.6272 12.6478 16.9184 12.3567 16.9184 11.9978C16.9184 11.6388 16.6272 11.3478 16.2681 11.3478L15.0724 11.3478ZM11.3446 16.269C11.3446 16.628 11.6358 16.919 11.9949 16.919C12.3541 16.919 12.6452 16.628 12.6452 16.269L12.6452 15.0739C12.6452 14.7149 12.3541 14.4239 11.9949 14.4239C11.6358 14.4239 11.3446 14.7149 11.3446 15.0739L11.3446 16.269Z"/></svg>

<svg xmlns="http://www.w3.org/2000/svg" fill="none" viewBox="0 0 24 24" focusable="false"><path fill="#74767B" fill-rule="evenodd" d="M7.65 4C5.63 4 4 5.63 4 7.65v8.69c0 2.02 1.63 3.65 3.65 3.65h8.69c2.02 0 3.66-1.63 3.66-3.65V7.65C20 5.63 18.36 4 16.34 4zM5.3 7.65c0-1.3 1.05-2.35 2.35-2.35h8.69c1.3 0 2.35 1.05 2.35 2.35v8.69c0 1.3-1.05 2.35-2.35 2.35H7.65c-1.3 0-2.35-1.05-2.35-2.35zm6.69 1.92c-.36 0-.65-.29-.65-.65v-1.2c0-.36.29-.65.65-.65s.65.29.65.65v1.2c0 .36-.29.65-.65.65m-4.27 1.77c-.36 0-.65.29-.65.65s.29.65.65.65h1.19c.36 0 .65-.29.65-.65s-.29-.65-.65-.65zm7.35 0c-.36 0-.65.29-.65.65s.29.65.65.65h1.19c.36 0 .65-.29.65-.65s-.29-.65-.65-.65zm-3.73 4.92c0 .36.29.65.65.65s.65-.29.65-.65v-1.19c0-.36-.29-.65-.65-.65s-.65.29-.65.65z"/></svg>
